app/dist/common/images/hugo-boss.svg

<svg height="18" viewBox="0 0 18 18" width="18" xmlns="http://www.w3.org/2000/svg"><path d="m0 0h18v18h-18z" fill="#f0f3fa"/><path d="m7 6v2h-2v-2h-2v6h2v-2.5h2v2.5h2v-6zm7.55 1.65c0 .38-.12.71-.38 1.05.53.3.83.83.83 1.46 0 1.01-.83 1.84-1.86 1.84h-3.14v-6h2.88c.92 0 1.67.74 1.67 1.65zm-2.05-.34h-.95v1.05h.95a.52.52 0 1 0 0-1.05zm-1 3.19h1.38c.31 0 .62-.19.62-.5 0-.3-.3-.5-.62-.5h-1.38z"/></svg>

<!-- by TradingView --><svg xmlns="http://www.w3.org/2000/svg" width="18" height="18" viewBox="0 0 18 18"><path fill="#F0F3FA" d="M0 0h18v18H0z"/><path d="M7 6v2H5V6H3v6h2V9.5h2V12h2V6H7zm7.55 1.65c0 .38-.12.71-.38 1.05.53.3.83.83.83 1.46 0 1.01-.83 1.84-1.86 1.84H10V6h2.88c.92 0 1.67.74 1.67 1.65zm-2.05-.34h-.95v1.05h.95a.52.52 0 1 0 0-1.05zm-1 3.19h1.38c.31 0 .62-.19.62-.5 0-.3-.3-.5-.62-.5H11.5v1z"/></svg>
